Other-Icons/16x16-light/places/folder-games.svg

<svg xmlns="http://www.w3.org/2000/svg" height="16" width="16"><g color="#e1e1e1" fill="#272d3a"><path d="M5 6v1H4v1h1v1h1V8h1V7H6V6zm5.5-.1a.6.6 0 0 0-.6.6.6.6 0 0 0 .6.6.6.6 0 0 0 .6-.6.6.6 0 0 0-.6-.6zm-1 1a.6.6 0 0 0-.6.6.6.6 0 0 0 .6.6.6.6 0 0 0 .6-.6.6.6 0 0 0-.6-.6zm2 0a.6.6 0 0 0-.6.6.6.6 0 0 0 .6.6.6.6 0 0 0 .6-.6.6.6 0 0 0-.6-.6zm-1 1a.6.6 0 0 0-.6.6.6.6 0 0 0 .6.6.6.6 0 0 0 .6-.6.6.6 0 0 0-.6-.6z"/><path d="M4 4a2 4 0 0 0-2 4v2.5a1.5 1.5 0 0 0 2.56 1.06l.944-.943A1.5 1.5 0 0 0 6.5 11 1.5 1.5 0 0 0 8 9.5a1.5 1.5 0 0 0 2.498 1.12l.941.94A1.5 1.5 0 0 0 14 10.5V8a2 4 0 0 0-2-4zm0 1h8a1 3 0 0 1 1 3v2.5a.5.5 0 0 1-.854.354L10.293 9H10v.5a.5.5 0 0 1-1 0V9H7v.5a.5.5 0 0 1-1 0V9h-.293l-1.853 1.854A.5.5 0 0 1 3 10.5V8a1 3 0 0 1 1-3z"/></g></svg>

<?xml version="1.0" encoding="UTF-8" standalone="no"?>
<svg
   xmlns:dc="http://purl.org/dc/elements/1.1/"
   xmlns:cc="http://creativecommons.org/ns#"
   xmlns:rdf="http://www.w3.org/1999/02/22-rdf-syntax-ns#"
   xmlns:svg="http://www.w3.org/2000/svg"
   xmlns="http://www.w3.org/2000/svg"
   xmlns:sodipodi="http://sodipodi.sourceforge.net/DTD/sodipodi-0.dtd"
   xmlns:inkscape="http://www.inkscape.org/namespaces/inkscape"
   height="16"
   width="16"
   version="1.1"
   id="svg8"
   sodipodi:docname="folder-games.svg"
   inkscape:version="0.92.4 5da689c313, 2019-01-14">
  <metadata
     id="metadata14">
    <rdf:RDF>
      <cc:Work
         rdf:about="">
        <dc:format>image/svg+xml</dc:format>
        <dc:type
           rdf:resource="http://purl.org/dc/dcmitype/StillImage" />
      </cc:Work>
    </rdf:RDF>
  </metadata>
  <defs
     id="defs12" />
  <sodipodi:namedview
     pagecolor="#ffffff"
     bordercolor="#666666"
     borderopacity="1"
     objecttolerance="10"
     gridtolerance="10"
     guidetolerance="10"
     inkscape:pageopacity="0"
     inkscape:pageshadow="2"
     inkscape:window-width="640"
     inkscape:window-height="506"
     id="namedview10"
     showgrid="false"
     inkscape:zoom="14.75"
     inkscape:cx="8"
     inkscape:cy="8"
     inkscape:window-x="0"
     inkscape:window-y="26"
     inkscape:window-maximized="0"
     inkscape:current-layer="svg8" />
  <g
     id="g825">
    <path
       d="M 5,6 V 7 H 4 V 8 H 5 V 9 H 6 V 8 H 7 V 7 H 6 V 6 Z M 10.5,5.9 A 0.6,0.6 0 0 0 9.9,6.5 0.6,0.6 0 0 0 10.5,7.1 0.6,0.6 0 0 0 11.1,6.5 0.6,0.6 0 0 0 10.5,5.9 Z m -1,1 A 0.6,0.6 0 0 0 8.9,7.5 0.6,0.6 0 0 0 9.5,8.1 0.6,0.6 0 0 0 10.1,7.5 0.6,0.6 0 0 0 9.5,6.9 Z m 2,0 a 0.6,0.6 0 0 0 -0.6,0.6 0.6,0.6 0 0 0 0.6,0.6 0.6,0.6 0 0 0 0.6,-0.6 0.6,0.6 0 0 0 -0.6,-0.6 z m -1,1 A 0.6,0.6 0 0 0 9.9,8.5 0.6,0.6 0 0 0 10.5,9.1 0.6,0.6 0 0 0 11.1,8.5 0.6,0.6 0 0 0 10.5,7.9 Z"
       id="path2"
       inkscape:connector-curvature="0"
       style="color:#e1e1e1;fill:#272d3a;fill-opacity:1" />
    <path
       d="M 4,4 A 2,4 0 0 0 2,8 v 2.5 a 1.5,1.5 0 0 0 2.56,1.06 L 5.504,10.617 A 1.5,1.5 0 0 0 6.5,11 1.5,1.5 0 0 0 8,9.5 a 1.5,1.5 0 0 0 2.498,1.12 l 0.941,0.94 A 1.5,1.5 0 0 0 14,10.5 V 8 A 2,4 0 0 0 12,4 Z m 0,1 h 8 a 1,3 0 0 1 1,3 v 2.5 a 0.5,0.5 0 0 1 -0.854,0.354 L 10.293,9 H 10 v 0.5 a 0.5,0.5 0 0 1 -1,0 V 9 H 7 v 0.5 a 0.5,0.5 0 0 1 -1,0 V 9 H 5.707 L 3.854,10.854 A 0.5,0.5 0 0 1 3,10.5 V 8 A 1,3 0 0 1 4,5 Z"
       id="path4"
       inkscape:connector-curvature="0"
       style="color:#e1e1e1;fill:#272d3a;fill-opacity:1" />
  </g>
</svg>
